flaticon/hand-gestures/hygienic.svg

<svg xmlns="http://www.w3.org/2000/svg" width="32" height="32" viewBox="0 0 24 24">
    <path d="M20.558594 14.679688L17.121094 16.800781C16.640625 17.078125 15.558594 17.160156 14.558594 17.160156 14.746094 16.828125 14.691406 16.429688 14.398438 15.960938 14.386719 15.796875 14.296875 15.675781 14.160156 15.625 13.507812 14.835938 12.507812 14.359375 11.441406 14.359375L9.878906 14.359375C9.039062 14.359375 8.238281 14.121094 7.601562 13.640625 6.15625 12.558594 3.898438 13.734375 2.800781 14.4375L2.800781 13.601562 0 13.601562 0 24 2.800781 24 2.800781 22.800781 8 22.800781C8.800781 22.800781 9.640625 22.71875 10.441406 22.679688L15.640625 21.878906C15.839844 21.878906 16.039062 21.839844 16.199219 21.800781 16.679688 21.71875 17.121094 21.480469 17.519531 21.121094L23.558594 16.320312C24.039062 15.921875 24.121094 15.199219 23.761719 14.71875 23.039062 13.761719 22.320312 13.761719 20.558594 14.679688zM2 23.199219L.800781 23.199219.800781 14.398438 2 14.398438zM23.078125 15.761719L17 20.480469 16.960938 20.519531C16.71875 20.800781 16.398438 20.960938 16.039062 21 15.878906 21.039062 15.761719 21.039062 15.601562 21.039062L10.320312 21.839844C9.558594 21.960938 8.761719 22 8 22L2.800781 22 2.800781 15.398438C3.761719 14.71875 6 13.441406 7.121094 14.320312 7.878906 14.878906 8.839844 15.199219 9.878906 15.199219L11.441406 15.199219C12.359375 15.199219 13.160156 15.601562 13.71875 16.359375 13.878906 16.601562 13.921875 16.839844 13.878906 16.921875 13.761719 17.121094 13.28125 17.199219 12.761719 17.238281 12.601562 17.238281 12.441406 17.238281 12.320312 17.238281L8.441406 17.238281C7.199219 17.238281 6.441406 17.839844 6.441406 18.839844 6.441406 19.078125 6.601562 19.238281 6.839844 19.238281 7.078125 19.238281 7.238281 19.078125 7.238281 18.839844 7.238281 18.640625 7.238281 18.039062 8.441406 18.039062L12.28125 18.039062C12.398438 18.039062 12.558594 18.039062 12.800781 18.039062 12.839844 18.039062 12.917969 18.039062 13 18.039062 14.878906 18.078125 16.640625 18.039062 17.558594 17.558594L21 15.441406C22.679688 14.601562 22.839844 14.800781 23.160156 15.28125 23.238281 15.398438 23.238281 15.640625 23.078125 15.761719zM24 3.199219L24 0 15.601562 0C15.359375 0 15.199219.160156 15.199219.398438 15.199219.640625 15.359375.800781 15.601562.800781L18.398438.800781 18.398438 3.199219 19.199219 3.199219 19.199219 4 12 4 12 8.800781 12.800781 8.800781 12.800781 10.398438 13.199219 10.398438 13.199219 11.601562 17.199219 11.601562 17.199219 10.398438 17.601562 10.398438 17.601562 8.800781 24 8.800781 24 4 23.199219 4 23.199219 3.199219zM19.199219.800781L23.199219.800781 23.199219 2.398438 19.199219 2.398438zM16.398438 10.800781L14 10.800781 14 10.398438 16.398438 10.398438zM16.800781 9.601562L13.601562 9.601562 13.601562 8.800781 16.800781 8.800781zM23.199219 8L12.800781 8 12.800781 4.800781 23.199219 4.800781zM22.398438 4L20 4 20 3.199219 22.398438 3.199219zM22.398438 4"/>
    <path d="M14 13.601562C14.238281 13.601562 14.398438 13.441406 14.398438 13.199219L14.398438 12.800781C14.398438 12.558594 14.238281 12.398438 14 12.398438 13.761719 12.398438 13.601562 12.558594 13.601562 12.800781L13.601562 13.199219C13.601562 13.441406 13.761719 13.601562 14 13.601562zM13.601562 14.800781C13.601562 15.039062 13.761719 15.199219 14 15.199219 14.238281 15.199219 14.398438 15.039062 14.398438 14.800781L14.398438 14.398438C14.398438 14.160156 14.238281 14 14 14 13.761719 14 13.601562 14.160156 13.601562 14.398438zM15.199219 13.601562C15.441406 13.601562 15.601562 13.441406 15.601562 13.199219L15.601562 12.800781C15.601562 12.558594 15.441406 12.398438 15.199219 12.398438 14.960938 12.398438 14.800781 12.558594 14.800781 12.800781L14.800781 13.199219C14.800781 13.441406 14.960938 13.601562 15.199219 13.601562zM14.800781 14.800781C14.800781 15.039062 14.960938 15.199219 15.199219 15.199219 15.441406 15.199219 15.601562 15.039062 15.601562 14.800781L15.601562 14.398438C15.601562 14.160156 15.441406 14 15.199219 14 14.960938 14 14.800781 14.160156 14.800781 14.398438zM14.800781 16.398438C14.800781 16.640625 14.960938 16.800781 15.199219 16.800781 15.441406 16.800781 15.601562 16.640625 15.601562 16.398438L15.601562 16C15.601562 15.761719 15.441406 15.601562 15.199219 15.601562 14.960938 15.601562 14.800781 15.761719 14.800781 16zM16 14.800781C16 15.039062 16.160156 15.199219 16.398438 15.199219 16.640625 15.199219 16.800781 15.039062 16.800781 14.800781L16.800781 14.398438C16.800781 14.160156 16.640625 14 16.398438 14 16.160156 14 16 14.160156 16 14.398438zM16.398438 13.601562C16.640625 13.601562 16.800781 13.441406 16.800781 13.199219L16.800781 12.800781C16.800781 12.558594 16.640625 12.398438 16.398438 12.398438 16.160156 12.398438 16 12.558594 16 12.800781L16 13.199219C16 13.441406 16.160156 13.601562 16.398438 13.601562zM16 16.398438C16 16.640625 16.160156 16.800781 16.398438 16.800781 16.640625 16.800781 16.800781 16.640625 16.800781 16.398438L16.800781 16C16.800781 15.761719 16.640625 15.601562 16.398438 15.601562 16.160156 15.601562 16 15.761719 16 16zM16 16.398438"/>
</svg>

<svg xmlns="http://www.w3.org/2000/svg" width="32" height="32" viewBox="0 0 24 24">
    <path d="M20.559 14.68L17.12 16.8c-.48.278-1.562.36-2.562.36.187-.332.132-.73-.16-1.2a.369.369 0 0 0-.239-.335 3.535 3.535 0 0 0-2.719-1.266H9.88c-.84 0-1.64-.238-2.277-.718-1.446-1.082-3.704.093-4.801.796v-.835H0V24h2.8v-1.2H8c.8 0 1.64-.081 2.441-.12l5.2-.801c.199 0 .398-.04.558-.078.48-.082.922-.32 1.32-.68l6.04-4.8c.48-.4.562-1.122.203-1.602-.723-.957-1.442-.957-3.203-.04zM2 23.2H.8v-8.802H2zm21.078-7.438L17 20.48l-.04.04a1.39 1.39 0 0 1-.92.48c-.161.04-.278.04-.438.04l-5.282.8C9.56 21.96 8.762 22 8 22H2.8v-6.602c.962-.68 3.2-1.957 4.321-1.078.758.559 1.719.88 2.758.88h1.562c.918 0 1.72.402 2.278 1.16.16.242.203.48.16.562-.117.2-.598.277-1.117.316H8.44c-1.242 0-2 .602-2 1.602 0 .238.16.398.399.398.238 0 .398-.16.398-.398 0-.2 0-.8 1.203-.8H13c1.879.038 3.64 0 4.559-.481L21 15.44c1.68-.84 1.84-.64 2.16-.16.078.117.078.36-.082.48zm0 0M24 3.2V0h-8.398c-.243 0-.403.16-.403.398 0 .243.16.403.403.403h2.796v2.398h.801V4H12v4.8h.8v1.598h.4v1.204h4v-1.204h.402V8.801H24V4h-.8v-.8zM19.2.8h4v1.598h-4zm-2.802 10H14v-.402h2.398zm.403-1.198h-3.2V8.8h3.2zM23.199 8H12.801V4.8h10.398zm-.8-4H20v-.8h2.398zm0 0"/>
    <path d="M14 13.602c.238 0 .398-.16.398-.403v-.398c0-.242-.16-.403-.398-.403-.238 0-.398.16-.398.403v.398c0 .242.16.403.398.403zm0 0M13.602 14.8c0 .24.16.4.398.4.238 0 .398-.16.398-.4v-.402c0-.238-.16-.398-.398-.398-.238 0-.398.16-.398.398zm0 0M15.2 13.602c.241 0 .402-.16.402-.403v-.398c0-.242-.16-.403-.403-.403-.238 0-.398.16-.398.403v.398c0 .242.16.403.398.403zm0 0M14.8 14.8c0 .24.16.4.4.4.241 0 .402-.16.402-.4v-.402c0-.238-.16-.398-.403-.398-.238 0-.398.16-.398.398zm0 0M14.8 16.398c0 .243.16.403.4.403.241 0 .402-.16.402-.403V16c0-.238-.16-.398-.403-.398-.238 0-.398.16-.398.398zm0 0M16 14.8c0 .24.16.4.398.4.243 0 .403-.16.403-.4v-.402c0-.238-.16-.398-.403-.398-.238 0-.398.16-.398.398zm0 0M16.398 13.602c.243 0 .403-.16.403-.403v-.398c0-.242-.16-.403-.403-.403-.238 0-.398.16-.398.403v.398c0 .242.16.403.398.403zm0 0M16 16.398c0 .243.16.403.398.403.243 0 .403-.16.403-.403V16c0-.238-.16-.398-.403-.398-.238 0-.398.16-.398.398zm0 0"/>
</svg>
